X:1
T:Title
%%score { ( 1 5 6 ) | ( 2 3 4 7 ) }
L:1/8
Q:1/4=62
M:4/4
K:D
V:1 treble nm="Фортепиано, Piano Go Life Grand" snm="Ф-но"
V:5 treble 
V:6 treble 
V:2 bass 
V:3 bass 
V:4 bass 
V:7 bass 
V:1
 z4 z2 z f/^g/ | a3 .a .^g4 | f2 z2 .[Be]4 | .d4 z2 .c2 | [EB]6[Q:1/4=61] z2 | z4[K:bass] z2 z C | %6
 D4[K:treble] z4 | z8 | C2[K:bass] z2 z2 z B, | z8 | z8 | z8 | z8 | z8 |[Q:1/4=62] z8 | z8 | z8 | %17
 z8[Q:1/4=61] | z8 | z8 | z8 | z8 | z8 | z8 | z8 | z8 | z8 | z8 | z8 | z8 | z8 | z8 |] %32
V:2
 z8 | .F,2 .A2 .E,2[K:treble] ^G.^g | .D,2[K:treble] .Fe/.d/[K:bass] z2[K:treble] E/A/B/.c/ | %3
 .B,,2[K:treble] D.d[K:bass] .A,,2 .C2 | .E,,2 .A,.B, B,,2 z2 | z4 A,,4 | z4 z2 A,2- | A,2 z2 z4 | %8
 .E,2 z2 .E,2 z2 | z8 | z8 | z8 | z8 | z8 | z8 | z8 | z8 | z8 | z8 | z8 | z8 | z8 | z8 | z8 | z8 | %25
 z8 | z8 | z8 | z8 | z8 | z8 | z8 |] %32
V:3
 x8 | z .C3 z .C3[K:treble] | z4[K:treble][K:bass] z .A,3[K:treble] | z .F,3[K:treble][K:bass] z4 | %4
 z .B,,3 z4 | x8 | B,,3 .B,, z B, z2 | z2 z/ .A,3/2 z2 .A,2 | A,,4 [E,,B,,]4 | x8 | x8 | x8 | x8 | %13
 x8 | x8 | x8 | x8 | x8 | x8 | x8 | x8 | x8 | x8 | x8 | x8 | x8 | x8 | x8 | x8 | x8 | x8 | x8 |] %32
V:4
 x8 | x6[K:treble] x2 | z .A,3[K:treble][K:bass] C,2[K:treble] z2 | x2[K:treble] x2[K:bass] x4 | %4
 x8 | x8 | x8 | E,4 z .F,3 | x8 | x8 | x8 | x8 | x8 | x8 | x8 | x8 | x8 | x8 | x8 | x8 | x8 | x8 | %22
 x8 | x8 | x8 | x8 | x8 | x8 | x8 | x8 | x8 | x8 |] %32
V:5
 x8 | x8 | x8 | z4 d2 z2 | z4 ^G,2 z2 | z4[K:bass] C2 A,2 | z .A, z[K:treble] .D E4- | %7
 E3 B,/C/ D2 z .D | z2[K:bass] B,C .B,2 .A,2 | x8 | x8 | x8 | x8 | x8 | x8 | x8 | x8 | x8 | x8 | %19
 x8 | x8 | x8 | x8 | x8 | x8 | x8 | x8 | x8 | x8 | x8 | x8 | x8 |] %32
V:6
 x8 | x8 | x8 | z4 z .E,3 | x8 | z4[K:bass] z E,3 | z2 ^G,2[K:treble] z4 | x8 | %8
 z[K:bass] E,3 z E,3 | x8 | x8 | x8 | x8 | x8 | x8 | x8 | x8 | x8 | x8 | x8 | x8 | x8 | x8 | x8 | %24
 x8 | x8 | x8 | x8 | x8 | x8 | x8 | x8 |] %32
V:7
 x8 | x6[K:treble] x2 | x2[K:treble] x2[K:bass] x2[K:treble] x2 | x2[K:treble] x2[K:bass] x4 | x8 | %5
 x8 | z4 C,4- | C,4 D,4 | x8 | x8 | x8 | x8 | x8 | x8 | x8 | x8 | x8 | x8 | x8 | x8 | x8 | x8 | %22
 x8 | x8 | x8 | x8 | x8 | x8 | x8 | x8 | x8 | x8 |] %32

